static/fa/svgs/solid/podcast.svg

<svg xmlns="http://www.w3.org/2000/svg" viewBox="0 0 448 512"><!--! Font Awesome Free 6.1.1 by @fontawesome - https://fontawesome.com License - https://fontawesome.com/license/free (Icons: CC BY 4.0, Fonts: SIL OFL 1.1, Code: MIT License) Copyright 2022 Fonticons, Inc.--><path d="M224 0C100.3 0 0 100.3 0 224c0 92.22 55.77 171.4 135.4 205.7-3.48-20.75-6.17-41.59-6.998-58.15C80.08 340.1 48 285.8 48 224c0-97.05 78.95-176 176-176s176 78.95 176 176c0 61.79-32.08 116.1-80.39 147.6-.834 16.5-3.541 37.37-7.035 58.17C392.2 395.4 448 316.2 448 224 448 100.3 347.7 0 224 0zm0 312c-32.88 0-64 8.625-64 43.75 0 33.13 12.88 104.3 20.62 132.8C185.8 507.6 205.1 512 224 512s38.25-4.375 43.38-23.38C275.1 459.9 288 388.8 288 355.8c0-35.2-31.1-43.8-64-43.8zm0-32c30.95 0 56-25.05 56-56s-25.9-56-56-56-56 25-56 56 25 56 56 56zm144-56c0-79.53-64.47-144-144-144S80 144.5 80 224c0 44.83 20.92 84.38 53.04 110.8 4.857-12.65 14.13-25.88 32.05-35.04.01-.06.31-.06.51-.06-22.7-17.6-37.6-44.8-37.6-75.7 0-53.02 42.98-96 96-96s96 42.98 96 96c0 30.92-14.87 58.13-37.57 75.68.13.025.508.049.475.074 17.93 9.16 27.19 22.38 32.05 35.04C347.1 308.4 368 268.8 368 224z"/></svg>

<svg xmlns="http://www.w3.org/2000/svg" viewBox="0 0 448 512"><!--! Font Awesome Free 6.1.1 by @fontawesome - https://fontawesome.com License - https://fontawesome.com/license/free (Icons: CC BY 4.0, Fonts: SIL OFL 1.1, Code: MIT License) Copyright 2022 Fonticons, Inc. --><path d="M224 0C100.3 0 0 100.3 0 224c0 92.22 55.77 171.4 135.4 205.7c-3.48-20.75-6.17-41.59-6.998-58.15C80.08 340.1 48 285.8 48 224c0-97.05 78.95-176 176-176s176 78.95 176 176c0 61.79-32.08 116.1-80.39 147.6c-.834 16.5-3.541 37.37-7.035 58.17C392.2 395.4 448 316.2 448 224C448 100.3 347.7 0 224 0zM224 312c-32.88 0-64 8.625-64 43.75c0 33.13 12.88 104.3 20.62 132.8C185.8 507.6 205.1 512 224 512s38.25-4.375 43.38-23.38C275.1 459.9 288 388.8 288 355.8C288 320.6 256.9 312 224 312zM224 280c30.95 0 56-25.05 56-56S254.1 168 224 168S168 193 168 224S193 280 224 280zM368 224c0-79.53-64.47-144-144-144S80 144.5 80 224c0 44.83 20.92 84.38 53.04 110.8c4.857-12.65 14.13-25.88 32.05-35.04C165.1 299.7 165.4 299.7 165.6 299.7C142.9 282.1 128 254.9 128 224c0-53.02 42.98-96 96-96s96 42.98 96 96c0 30.92-14.87 58.13-37.57 75.68c.1309 .0254 .5078 .0488 .4746 .0742c17.93 9.16 27.19 22.38 32.05 35.04C347.1 308.4 368 268.8 368 224z"/></svg>
